Yaru++/actions/16/align-horizontal-right-to-anchor.svg

<svg viewBox="0 0 24 24" xmlns="http://www.w3.org/2000/svg">
  <path d="m4 4v1 4 1h6v-5-1h-1-4zm9 0v16h1v-16zm3 0v1 5h1 3v-6h-1zm-11 1h4v4h-4zm-1 9v1 5h1 6v-6h-1zm1 1h5v4h-5z" fill="#808080"/>
</svg>

<svg xmlns="http://www.w3.org/2000/svg" viewBox="0 0 24 24">
 <defs>
  <style id="current-color-scheme" type="text/css">
   .ColorScheme-Text { color:#808080; }
  </style>
 </defs>
 <path fill="#808080" class="ColorScheme-Text" d="M 4 4 L 4 5 L 4 9 L 4 10 L 10 10 L 10 5 L 10 4 L 9 4 L 5 4 L 4 4 z M 13 4 L 13 20 L 14 20 L 14 4 L 13 4 z M 16 4 L 16 5 L 16 10 L 17 10 L 20 10 L 20 4 L 19 4 L 16 4 z M 5 5 L 9 5 L 9 9 L 5 9 L 5 5 z M 4 14 L 4 15 L 4 20 L 5 20 L 11 20 L 11 14 L 10 14 L 4 14 z M 5 15 L 10 15 L 10 19 L 5 19 L 5 15 z"/>
</svg>
